src/xmb/monochrome/input_MOUSE.svg

<?xml version="1.0" encoding="UTF-8" standalone="no"?>
<!-- Created with Inkscape (http://www.inkscape.org/) -->

<svg
   xmlns:dc="http://purl.org/dc/elements/1.1/"
   xmlns:cc="http://creativecommons.org/ns#"
   xmlns:rdf="http://www.w3.org/1999/02/22-rdf-syntax-ns#"
   xmlns:svg="http://www.w3.org/2000/svg"
   xmlns="http://www.w3.org/2000/svg"
   xmlns:sodipodi="http://sodipodi.sourceforge.net/DTD/sodipodi-0.dtd"
   xmlns:inkscape="http://www.inkscape.org/namespaces/inkscape"
   id="svg4152"
   version="1.1"
   inkscape:version="0.92.3 (2405546, 2018-03-11)"
   width="64"
   height="64"
   xml:space="preserve"
   sodipodi:docname="input_MOUSE.svg"
   inkscape:export-filename="/home/alfrix/Escritorio/assets/xmb/monochrome/png/input_MOUSE.png"
   inkscape:export-xdpi="384"
   inkscape:export-ydpi="384"><metadata
     id="metadata4158"><rdf:RDF><cc:Work
         rdf:about=""><dc:format>image/svg+xml</dc:format><dc:type
           rdf:resource="http://purl.org/dc/dcmitype/StillImage" /><dc:title /></cc:Work></rdf:RDF></metadata><defs
     id="defs4156"><clipPath
       clipPathUnits="userSpaceOnUse"
       id="clipPath4166"><path
         d="M 0,64 64,64 64,0 0,0 0,64 z"
         id="path4168"
         inkscape:connector-curvature="0" /></clipPath></defs><sodipodi:namedview
     pagecolor="#808080"
     bordercolor="#666666"
     borderopacity="1"
     objecttolerance="10"
     gridtolerance="10"
     guidetolerance="10"
     inkscape:pageopacity="0"
     inkscape:pageshadow="2"
     inkscape:window-width="1024"
     inkscape:window-height="697"
     id="namedview4154"
     showgrid="false"
     inkscape:zoom="2.6870058"
     inkscape:cx="-10.104882"
     inkscape:cy="-28.69897"
     inkscape:window-x="0"
     inkscape:window-y="0"
     inkscape:window-maximized="1"
     inkscape:current-layer="g4160"
     showguides="false"><inkscape:grid
       type="xygrid"
       id="grid836" /></sodipodi:namedview><g
     id="g4160"
     inkscape:groupmode="layer"
     inkscape:label="Libretro - Pad"
     transform="matrix(1.25,0,0,-1.25,0,64)"><path
       style="color:#000000;clip-rule:nonzero;display:inline;overflow:visible;visibility:visible;opacity:1;isolation:auto;mix-blend-mode:normal;color-interpolation:sRGB;color-interpolation-filters:linearRGB;solid-color:#000000;solid-opacity:1;vector-effect:none;fill:#ffffff;fill-opacity:1;fill-rule:nonzero;stroke:none;stroke-width:2;stroke-linecap:round;stroke-linejoin:miter;stroke-miterlimit:4;stroke-dasharray:none;stroke-dashoffset:0;stroke-opacity:1;paint-order:stroke fill markers;color-rendering:auto;image-rendering:auto;shape-rendering:auto;text-rendering:auto;enable-background:accumulate"
       d="M 31.5 18.013672 C 21.871555 18.151127 23 22.101476 23 27 L 23 28.025391 C 26.994898 28.236789 29.28715 28.339539 31.5 28.353516 L 31.5 25.941406 C 31.484463 25.937632 31.470478 25.929931 31.455078 25.925781 C 31.260465 25.873324 31.074808 25.796535 30.908203 25.689453 C 30.907464 25.688981 30.906989 25.687974 30.90625 25.6875 C 30.835702 25.642023 30.771145 25.589042 30.707031 25.535156 C 30.683564 25.51555 30.659252 25.497213 30.636719 25.476562 C 30.582984 25.42704 30.534338 25.373465 30.486328 25.318359 C 30.454177 25.281692 30.423921 25.244033 30.394531 25.205078 C 30.360469 25.159662 30.326973 25.114669 30.296875 25.066406 C 30.261034 25.009273 30.231011 24.949441 30.201172 24.888672 C 30.179322 24.843983 30.157097 24.80034 30.138672 24.753906 C 30.108519 24.678248 30.084846 24.599298 30.064453 24.519531 C 30.056101 24.486726 30.045686 24.455275 30.039062 24.421875 C 30.015205 24.302212 30 24.180677 30 24.054688 L 30 21.947266 C 30 21.821203 30.015178 21.697918 30.039062 21.578125 C 30.046087 21.54271 30.057439 21.509353 30.066406 21.474609 C 30.085979 21.39916 30.108404 21.325691 30.136719 21.253906 C 30.157537 21.200801 30.181756 21.150437 30.207031 21.099609 C 30.233991 21.04569 30.261261 20.992445 30.292969 20.941406 C 30.324868 20.889748 30.360064 20.84139 30.396484 20.792969 C 30.425322 20.754812 30.454844 20.717602 30.486328 20.681641 C 30.533794 20.62716 30.581702 20.574417 30.634766 20.525391 C 30.663126 20.499288 30.694773 20.477562 30.724609 20.453125 C 30.781466 20.406379 30.836628 20.358595 30.898438 20.318359 C 30.925317 20.300913 30.954686 20.287631 30.982422 20.271484 C 31.129302 20.185742 31.288167 20.119209 31.455078 20.074219 C 31.470478 20.070068 31.484463 20.062368 31.5 20.058594 L 31.5 18.013672 z M 32.5 18.013672 L 32.5 20.060547 C 32.699111 20.109016 32.885554 20.189479 33.056641 20.294922 C 33.068542 20.302206 33.082012 20.306925 33.09375 20.314453 C 33.095234 20.315412 33.096175 20.317397 33.097656 20.318359 C 33.162718 20.360633 33.22168 20.409518 33.28125 20.458984 C 33.308842 20.481714 33.336959 20.503186 33.363281 20.527344 C 33.415705 20.575839 33.462812 20.627815 33.509766 20.681641 C 33.543501 20.71995 33.57671 20.758014 33.607422 20.798828 C 33.639206 20.841453 33.668959 20.884567 33.697266 20.929688 C 33.736675 20.99191 33.770486 21.056495 33.802734 21.123047 C 33.821848 21.162815 33.842958 21.201051 33.859375 21.242188 C 33.890019 21.318318 33.912851 21.398201 33.933594 21.478516 C 33.942328 21.512645 33.954076 21.545304 33.960938 21.580078 C 33.984809 21.69971 34 21.821318 34 21.947266 L 34 24.054688 C 34 24.180634 33.984809 24.302309 33.960938 24.421875 C 33.954972 24.451956 33.94487 24.480166 33.9375 24.509766 C 33.915807 24.596386 33.890602 24.681906 33.857422 24.763672 C 33.842309 24.801195 33.824004 24.836666 33.806641 24.873047 C 33.77341 24.942087 33.736247 25.007883 33.695312 25.072266 C 33.669157 25.113834 33.642398 25.15391 33.613281 25.193359 C 33.578041 25.240667 33.54123 25.286118 33.501953 25.330078 C 33.457178 25.380685 33.410982 25.428791 33.361328 25.474609 C 33.340437 25.4937 33.318567 25.511099 33.296875 25.529297 C 33.231564 25.58465 33.165804 25.638962 33.09375 25.685547 C 32.913129 25.802323 32.71322 25.88755 32.5 25.939453 L 32.5 28.353516 C 34.71285 28.339539 37.005102 28.236789 41 28.025391 L 41 27 C 41 22.101476 42.128445 18.151127 32.5 18.013672 z M 23 29.021484 L 23 39 C 23 43.985999 27.014001 48 32 48 C 36.986 48 41 43.985999 41 39 L 41 29.021484 C 36.757231 29.245861 34.28839 29.371094 32 29.371094 C 29.711199 29.371094 27.243938 29.245941 23 29.021484 z "
       transform="matrix(0.8,0,0,-0.8,0,51.2)"
       id="rect818" /></g></svg>

<svg xmlns="http://www.w3.org/2000/svg" xml:space="preserve" width="64" height="64"><path d="M31.5 18.014C21.872 18.15 23 22.1 23 27v1.025c3.995.212 6.287.315 8.5.329V25.94c-.016-.003-.03-.011-.045-.015a2 2 0 0 1-.547-.237l-.002-.002a2 2 0 0 1-.199-.152l-.07-.058a2 2 0 0 1-.242-.272 2 2 0 0 1-.098-.139 2 2 0 0 1-.096-.177q-.034-.067-.062-.135a2 2 0 0 1-.075-.234l-.025-.098a2 2 0 0 1-.039-.367v-2.108q.001-.19.04-.369.01-.052.026-.103a1.9 1.9 0 0 1 .42-.793q.07-.083.149-.157c.028-.026.06-.047.09-.072q.083-.072.173-.135l.084-.047q.221-.129.473-.197c.015-.004.03-.012.045-.015zm1 0v2.047q.3.073.557.234l.037.02.004.003q.096.066.183.141.042.033.082.068.078.073.147.155a2 2 0 0 1 .187.248q.058.093.106.193.03.058.056.12.045.113.075.236c.008.034.02.066.027.101q.038.179.039.367v2.108q-.001.188-.04.367-.01.044-.023.088a2 2 0 0 1-.08.254q-.023.055-.05.109a2 2 0 0 1-.194.32 2 2 0 0 1-.252.282q-.03.028-.064.054-.096.085-.203.157-.272.175-.594.253v2.415c2.213-.014 4.505-.117 8.5-.329V27c0-4.899 1.128-8.849-8.5-8.986M23 29.02V39c0 4.986 4.014 9 9 9s9-4.014 9-9v-9.979c-4.243.225-6.712.35-9 .35s-4.756-.125-9-.35" style="color:#000;clip-rule:nonzero;display:inline;overflow:visible;visibility:visible;opacity:1;isolation:auto;mix-blend-mode:normal;color-interpolation:sRGB;color-interpolation-filters:linearRGB;solid-color:#000;solid-opacity:1;vector-effect:none;fill:#fff;fill-opacity:1;fill-rule:nonzero;stroke:none;stroke-width:2;stroke-linecap:round;stroke-linejoin:miter;stroke-miterlimit:4;stroke-dasharray:none;stroke-dashoffset:0;stroke-opacity:1;paint-order:stroke fill markers;color-rendering:auto;image-rendering:auto;shape-rendering:auto;text-rendering:auto"/></svg>
